X: 33074
T: Primrose Lasses, The
R: reel
M: 4/4
K: Dmajor
f2f>e d2d>B|A>Bd>e f<BB>e|f2f>e d2d>B|1 A>da>g f<dd>e:|2 A>da>g f<dd>B||
A>df>d a>df>d|A>df>d e<BB2|A>df>d a>df>d|f/g/a e>g f<dd>B|
A>df>d a>df>d|A>df>d e<BB>e|f2f>e d2d>B|A>da>g f<dd>e||

